flaticon/essential/id-card-3.svg

<svg xmlns="http://www.w3.org/2000/svg" width="32" height="32" viewBox="0 0 24 24">
    <path d="M20.914062 17.714844C20.84375 17.792969 20.800781 17.894531 20.800781 18 20.800781 18.105469 20.839844 18.207031 20.914062 18.285156 20.992188 18.355469 21.097656 18.398438 21.199219 18.398438 21.304688 18.398438 21.40625 18.355469 21.484375 18.285156 21.554688 18.207031 21.601562 18.105469 21.601562 18 21.601562 17.894531 21.554688 17.792969 21.484375 17.714844 21.335938 17.570312 21.066406 17.566406 20.914062 17.714844zM9.457031 16.90625L8 16.160156 8 16.007812C8.652344 15.652344 9.109375 15.066406 9.363281 14.261719 9.753906 14.054688 10 13.65625 10 13.207031L10 12.808594C10 12.4375 9.828125 12.09375 9.539062 11.867188 9.289062 10.355469 8.234375 9.589844 6.398438 9.589844 6.3125 9.589844 6.226562 9.59375 6.144531 9.597656 5.800781 9.625 5.292969 9.597656 4.855469 9.300781 4.691406 9.191406 4.570312 9.085938 4.488281 8.984375 4.355469 8.8125 4.128906 8.753906 3.929688 8.835938 3.726562 8.917969 3.609375 9.121094 3.636719 9.335938 3.652344 9.484375 3.675781 9.660156 3.714844 9.847656 3.792969 10.238281 3.792969 10.238281 3.683594 10.472656 3.644531 10.5625 3.59375 10.667969 3.535156 10.8125 3.402344 11.136719 3.308594 11.492188 3.253906 11.871094 2.96875 12.097656 2.800781 12.441406 2.800781 12.808594L2.800781 13.207031C2.800781 13.65625 3.046875 14.054688 3.433594 14.261719 3.691406 15.066406 4.148438 15.652344 4.800781 16.007812L4.800781 16.15625 3.292969 16.902344C2.742188 17.203125 2.398438 17.777344 2.398438 18.40625L2.398438 18.933594C2.398438 19.253906 2.398438 20.007812 6.398438 20.007812 10.398438 20.007812 10.398438 19.253906 10.398438 18.933594L10.398438 18.4375C10.398438 17.785156 10.039062 17.199219 9.457031 16.90625zM9.601562 18.84375C9.351562 18.996094 8.335938 19.207031 6.398438 19.207031 4.464844 19.207031 3.449219 18.996094 3.199219 18.84375L3.199219 18.402344C3.199219 18.070312 3.382812 17.761719 3.660156 17.609375L5.203125 16.851562C5.445312 16.734375 5.601562 16.484375 5.601562 16.214844L5.601562 15.492188 5.359375 15.390625C4.75 15.128906 4.355469 14.628906 4.152344 13.863281L4.09375 13.652344 3.886719 13.585938C3.71875 13.535156 3.601562 13.378906 3.601562 13.207031L3.601562 12.808594C3.601562 12.660156 3.683594 12.527344 3.816406 12.457031L4.003906 12.355469 4.027344 12.144531C4.066406 11.769531 4.148438 11.421875 4.273438 11.117188 4.328125 10.988281 4.375 10.890625 4.410156 10.808594 4.546875 10.519531 4.59375 10.367188 4.5625 10.058594 5.03125 10.328125 5.59375 10.445312 6.210938 10.398438 6.273438 10.390625 6.335938 10.390625 6.402344 10.390625 7.898438 10.390625 8.628906 10.929688 8.773438 12.148438L8.796875 12.359375 8.984375 12.457031C9.117188 12.527344 9.199219 12.660156 9.199219 12.808594L9.199219 13.207031C9.199219 13.378906 9.082031 13.535156 8.914062 13.585938L8.703125 13.652344 8.648438 13.863281C8.441406 14.628906 8.046875 15.128906 7.441406 15.390625L7.199219 15.492188 7.199219 16.21875C7.199219 16.484375 7.347656 16.726562 7.585938 16.847656L9.09375 17.617188 9.09375 17.621094C9.40625 17.777344 9.601562 18.089844 9.601562 18.4375zM12.398438 11.605469L16.398438 11.605469C16.621094 11.605469 16.800781 11.429688 16.800781 11.207031 16.800781 10.984375 16.621094 10.808594 16.398438 10.808594L12.398438 10.808594C12.179688 10.808594 12 10.984375 12 11.207031 12 11.429688 12.179688 11.605469 12.398438 11.605469zM12.800781 17.605469L12.398438 17.605469C12.179688 17.605469 12 17.785156 12 18.007812 12 18.226562 12.179688 18.40625 12.398438 18.40625L12.800781 18.40625C13.019531 18.40625 13.199219 18.226562 13.199219 18.007812 13.199219 17.785156 13.019531 17.605469 12.800781 17.605469zM15.199219 17.605469L14.398438 17.605469C14.179688 17.605469 14 17.785156 14 18.007812 14 18.226562 14.179688 18.40625 14.398438 18.40625L15.199219 18.40625C15.421875 18.40625 15.601562 18.226562 15.601562 18.007812 15.601562 17.785156 15.421875 17.605469 15.199219 17.605469zM17.199219 17.605469L16.800781 17.605469C16.578125 17.605469 16.398438 17.785156 16.398438 18.007812 16.398438 18.226562 16.578125 18.40625 16.800781 18.40625L17.199219 18.40625C17.421875 18.40625 17.601562 18.226562 17.601562 18.007812 17.601562 17.785156 17.421875 17.605469 17.199219 17.605469zM19.601562 17.605469L18.800781 17.605469C18.578125 17.605469 18.398438 17.785156 18.398438 18.007812 18.398438 18.226562 18.578125 18.40625 18.800781 18.40625L19.601562 18.40625C19.820312 18.40625 20 18.226562 20 18.007812 20 17.785156 19.820312 17.605469 19.601562 17.605469zM21.199219 13.207031L12.398438 13.207031C12.179688 13.207031 12 13.386719 12 13.605469 12 13.828125 12.179688 14.007812 12.398438 14.007812L21.199219 14.007812C21.421875 14.007812 21.601562 13.828125 21.601562 13.605469 21.601562 13.386719 21.421875 13.207031 21.199219 13.207031zM21.199219 15.605469L12.398438 15.605469C12.179688 15.605469 12 15.785156 12 16.007812 12 16.226562 12.179688 16.40625 12.398438 16.40625L21.199219 16.40625C21.421875 16.40625 21.601562 16.226562 21.601562 16.007812 21.601562 15.785156 21.421875 15.605469 21.199219 15.605469zM21.199219 15.605469"/>
    <path d="M 22.128906 5.601562 L 14.800781 5.601562 L 14.800781 2.523438 C 14.800781 2.015625 14.386719 1.601562 13.875 1.601562 L 10.125 1.601562 C 9.613281 1.601562 9.199219 2.015625 9.199219 2.523438 L 9.199219 5.601562 L 1.871094 5.601562 C 0.839844 5.601562 0 6.441406 0 7.472656 L 0 20.527344 C 0 21.558594 0.839844 22.398438 1.871094 22.398438 L 22.128906 22.398438 C 23.160156 22.398438 24 21.558594 24 20.527344 L 24 7.472656 C 24 6.441406 23.160156 5.601562 22.128906 5.601562 Z M 10 2.523438 C 10 2.457031 10.054688 2.398438 10.125 2.398438 L 13.875 2.398438 C 13.945312 2.398438 14 2.457031 14 2.523438 L 14 7.875 C 14 7.945312 13.945312 8 13.875 8 L 10.125 8 C 10.054688 8 10 7.945312 10 7.875 Z M 23.199219 20.527344 C 23.199219 21.121094 22.71875 21.601562 22.128906 21.601562 L 1.871094 21.601562 C 1.28125 21.601562 0.800781 21.121094 0.800781 20.527344 L 0.800781 7.472656 C 0.800781 6.878906 1.28125 6.398438 1.871094 6.398438 L 9.199219 6.398438 L 9.199219 7.875 C 9.199219 8.386719 9.613281 8.800781 10.125 8.800781 L 13.875 8.800781 C 14.386719 8.800781 14.800781 8.386719 14.800781 7.875 L 14.800781 6.398438 L 22.128906 6.398438 C 22.71875 6.398438 23.199219 6.878906 23.199219 7.472656 Z M 23.199219 20.527344"/>
    <path d="M 12 6 C 12.882812 6 13.601562 5.28125 13.601562 4.398438 C 13.601562 3.519531 12.882812 2.800781 12 2.800781 C 11.117188 2.800781 10.398438 3.519531 10.398438 4.398438 C 10.398438 5.28125 11.117188 6 12 6 Z M 12 3.601562 C 12.441406 3.601562 12.800781 3.957031 12.800781 4.398438 C 12.800781 4.839844 12.441406 5.199219 12 5.199219 C 11.558594 5.199219 11.199219 4.839844 11.199219 4.398438 C 11.199219 3.957031 11.558594 3.601562 12 3.601562 Z M 12 3.601562"/>
</svg>

<svg xmlns="http://www.w3.org/2000/svg" width="32" height="32" viewBox="0 0 24 24">
    <path d="M20.914 17.715a.43.43 0 0 0-.113.285c0 .105.039.207.113.285.078.07.184.113.285.113a.43.43 0 0 0 .285-.113.434.434 0 0 0 .118-.285.434.434 0 0 0-.118-.285.425.425 0 0 0-.57 0zm0 0M9.457 16.906L8 16.16v-.152c.652-.356 1.11-.942 1.363-1.746.39-.207.637-.606.637-1.055v-.398c0-.371-.172-.715-.46-.942-.25-1.512-1.306-2.277-3.142-2.277-.085 0-.171.004-.253.008-.344.027-.852 0-1.29-.297a1.635 1.635 0 0 1-.367-.317.473.473 0 0 0-.558-.148.47.47 0 0 0-.293.5c.015.148.039.324.078.512.078.39.078.39-.031.625-.04.09-.09.195-.149.34a4.48 4.48 0 0 0-.281 1.058c-.285.227-.453.57-.453.938v.398c0 .45.246.848.633 1.055.257.804.714 1.39 1.367 1.746v.148l-1.508.746c-.55.301-.895.875-.895 1.504v.528c0 .32 0 1.074 4 1.074s4-.754 4-1.074v-.497c0-.652-.359-1.238-.941-1.53zm.145 1.938c-.25.152-1.266.363-3.204.363-1.933 0-2.949-.21-3.199-.363v-.442c0-.332.184-.64.461-.793l1.543-.757a.71.71 0 0 0 .399-.637v-.723l-.243-.101c-.609-.262-1.004-.762-1.207-1.528l-.058-.21-.207-.067a.4.4 0 0 1-.285-.379v-.398c0-.149.082-.282.214-.352l.188-.102.023-.21c.04-.375.121-.723.246-1.028.055-.129.102-.226.137-.308.137-.29.184-.442.152-.75.47.27 1.032.386 1.649.34.062-.008.125-.008.191-.008 1.496 0 2.227.539 2.371 1.757l.024.211.187.098c.133.07.215.203.215.352v.398a.4.4 0 0 1-.285.379l-.21.066-.056.211c-.207.766-.601 1.266-1.207 1.528l-.242.101v.727c0 .265.149.508.387.629l1.508.77v.003a.91.91 0 0 1 .508.817zm0 0M12.398 11.605h4a.398.398 0 1 0 0-.796h-4a.398.398 0 1 0 0 .796zm0 0M12.8 17.605h-.402a.401.401 0 0 0 0 .801h.403a.4.4 0 0 0 0-.8zm0 0M15.2 17.605h-.802a.401.401 0 0 0 0 .801h.801a.401.401 0 1 0 0-.8zm0 0M17.2 17.605h-.4a.401.401 0 0 0 0 .8l.4.001a.401.401 0 1 0 0-.8zm0 0M19.602 17.605H18.8a.401.401 0 0 0 0 .8l.8.001a.4.4 0 0 0 0-.8zm0 0M21.2 13.207h-8.802a.4.4 0 0 0 0 .8H21.2a.401.401 0 0 0 0-.8zm0 0M21.2 15.605h-8.802a.401.401 0 0 0 0 .801H21.2a.401.401 0 1 0 0-.8zm0 0"/>
    <path d="M22.129 5.602H14.8V2.523a.924.924 0 0 0-.926-.921h-3.75a.924.924 0 0 0-.926.921v3.079H1.871C.84 5.602 0 6.442 0 7.472v13.055c0 1.032.84 1.871 1.871 1.871H22.13c1.031 0 1.871-.84 1.871-1.87V7.472c0-1.032-.84-1.871-1.871-1.871zM10 2.523c0-.066.055-.125.125-.125h3.75c.07 0 .125.059.125.125v5.352c0 .07-.055.125-.125.125h-3.75A.123.123 0 0 1 10 7.875zm13.2 18.004c0 .594-.481 1.075-1.071 1.075H1.87c-.59 0-1.07-.48-1.07-1.075V7.473c0-.594.48-1.075 1.07-1.075H9.2v1.477c0 .512.414.926.926.926h3.75a.925.925 0 0 0 .926-.926V6.398h7.328c.59 0 1.07.48 1.07 1.075zm0 0"/>
    <path d="M12 6c.883 0 1.602-.719 1.602-1.602a1.603 1.603 0 0 0-3.203 0C10.398 5.281 11.116 6 12 6zm0-2.398a.799.799 0 1 1 0 1.597.799.799 0 0 1 0-1.598zm0 0"/>
</svg>
